X:098
T: Handle's Minuett
N: O'Farrell's Pocket Companion v.2 (Sky ed. p.56)
N: Presumably "Handle" is G.F. Handel
M: 3/4
L: 1/8
R: waltz
Q: 200
K: D
A|: de f2 e2|f2 d2 f2|fagfed|cBAGFE|DAFADA|
DBGBDG|DAFADA|DBGBDG|de f2 e2|f2 d2 a2|
[1 cdecdB | ABAGFE :|2 (3fed c2 B2|B2 A3||
f/g/|: agfgaf|bagfed|dafada|dbgbdb|dafada|dbgbdb|
a2 gfed |bagfed|cdefgf|e2 A2 fg|aagafa|gafaea|
aagafa|gafaea|fdcdec|dcBAGF|GdBdGd|FdAdFd|
GBdGFE|FADAFA|G2 E2 c2|d6 :|
